assets/icons/qvision/local_pharmacy.svg

<svg xmlns="http://www.w3.org/2000/svg" height="24" viewBox="0 0 24 24" width="24"><path d="M0 0h24v24H0z" fill="none"/><path d="M21 5h-2.64l1.14-3.14L17.15 1l-1.46 4H3v2l2 6-2 6v2h18v-2l-2-6 2-6V5zm-5 9h-3v3h-2v-3H8v-2h3V9h2v3h3v2z"/></svg>

<svg width="24" height="24" viewBox="0 0 24 24" fill="none" xmlns="http://www.w3.org/2000/svg">
<g clip-path="url(#clip0_147_5433)">
<path d="M21 5H18.36L19.5 1.86L17.15 1L15.69 5H3V7L5 13L3 19V21H21V19L19 13L21 7V5ZM16 14H13V17H11V14H8V12H11V9H13V12H16V14Z" fill="#323232"/>
</g>
<defs>
<clipPath id="clip0_147_5433">
<rect width="24" height="24" fill="white"/>
</clipPath>
</defs>
</svg>
